en/_assets/wiki/svg/history-sidebar.svg

<svg xmlns="http://www.w3.org/2000/svg" xmlns:xlink="http://www.w3.org/1999/xlink" width="14" height="14" class="yc-icon" fill="currentColor" stroke="none" aria-hidden="true"><svg viewBox="0 0 14 14" xmlns="http://www.w3.org/2000/svg"><path d="M7 0.828125C3.52148 0.828125 0.703125 3.64648 0.703125 7.125C0.703125 10.6035 3.52148 13.4219 7 13.4219C10.4785 13.4219 13.2969 10.6035 13.2969 7.125C13.2969 3.64648 10.4785 0.828125 7 0.828125ZM7 12.2031C4.18164 12.2031 1.92188 9.94336 1.92188 7.125C1.92188 4.33203 4.18164 2.04688 7 2.04688C9.79297 2.04688 12.0781 4.33203 12.0781 7.125C12.0781 9.94336 9.79297 12.2031 7 12.2031ZM8.54883 9.5625C8.70117 9.66406 8.87891 9.63867 8.98047 9.48633L9.46289 8.85156C9.56445 8.69922 9.53906 8.52148 9.38672 8.41992L7.71094 7.17578V3.57031C7.71094 3.41797 7.55859 3.26562 7.40625 3.26562H6.59375C6.41602 3.26562 6.28906 3.41797 6.28906 3.57031V7.75977C6.28906 7.83594 6.31445 7.9375 6.39062 7.98828L8.54883 9.5625Z"></path></svg></svg>

<svg xmlns="http://www.w3.org/2000/svg" width="14" height="14" fill="currentColor" aria-hidden="true" class="yc-icon"><svg xmlns="http://www.w3.org/2000/svg" viewBox="0 0 14 14"><path d="M7 .828A6.296 6.296 0 0 0 .703 7.125 6.296 6.296 0 0 0 7 13.422a6.296 6.296 0 0 0 6.297-6.297A6.296 6.296 0 0 0 7 .828Zm0 11.375a5.06 5.06 0 0 1-5.078-5.078A5.077 5.077 0 0 1 7 2.047c2.793 0 5.078 2.285 5.078 5.078A5.077 5.077 0 0 1 7 12.203Zm1.549-2.64c.152.101.33.076.431-.077l.483-.634c.101-.153.076-.33-.076-.432L7.71 7.176V3.57a.328.328 0 0 0-.305-.304h-.812a.309.309 0 0 0-.305.304v4.19c0 .076.025.178.102.228l2.158 1.574Z"/></svg></svg>
